X:1
T:O Lieb
T:O Lieb
T:Franz Liszt
C:Franz Liszt
%%score 1 { ( 2 3 6 8 ) | ( 4 5 7 ) }
L:1/8
Q:1/4=144
M:6/4
K:Ab
V:1 treble nm="Voice"
V:2 treble nm="Piano"
V:3 treble 
V:6 treble 
V:8 treble 
V:4 bass 
V:5 bass 
V:7 bass 
V:1
"^Animato" z12 | z4 z2 z2 z2 E2 |!<(! c6 c6!<)! |!>(! c6- c2!>)! z2 c2 |!<(! c4 c2!<)! d4 c2 | %5
w: |O|lieb, o|lieb, * so|lang du lie- ben|
!>(! (c6 F2)!>)! z2 F2 |!<(! (F2 G2) A2!<)!!>(! c4 B2!>)! | A4 z2 z2 z2 E2 |!<(! c6 c6!<)! | %9
w: kannst, * so|lang * du lie- ben|kannst! O|lieb, o|
!>(! c6- c2!>)! z2 c2 |!<(! c4 c2 d4 c2!<)! | f6- f2 z2!p! F2 | (F2 G2) A2!>(! c4 B2!>)! | %13
w: lieb, * so|lang du lie- ben|magst, * so|lang * du lie- ben|
 A6 z2 z2!p! A2 | A4- AG A4- AB | c6 z2 z2 c2 |"^poco cresc. ed agitato" c4- c=B c4- c=d | %17
w: magst! Die|Stun- * * de * *|kommt, die|Stun- * * de * *|
 =e4 z2 e6 | =e6 e6 | =e6 =B6 |"^dimin." (^c6 _d4) A2 | B4 z2 z4 z2 | z2 z2 B2!>(! d4!>)! _c2 | %23
w: kommt, wo|du an|Grä- bern|stehst * und|klagst,|die Stun- de|
 B2 z2 z2"^con passione"!>(! (d4!>)! _c2) |!<(! (B2 =A2) B2!<)! !>!_f6- | %25
w: kommt wo *|du * an Grä-|
 !fermata!f2!>(! e2 (d2 _c2) (B2 A2)!>)! | G6 z4 z2 |[M:9/4] z18 |[K:B][M:6/4] z4 z5 F2 x | d6 d6 | %30
w: * bern stehst * und *|klagst.||Und|sor- ge,|
 d4 d2 e4 d2 | (d6 G2) z2 G2 |!<(! (G2 A2) B2!<)! d4 c2 |!>(! (c2 B2) G2!>)! F4 F2 | %34
w: daß dein Her- ze|glüht * und|Lie- * be hegt und|Lie- * be trägt, so|
!<(! d6 d6!<)! | d6- d4 d2 |!f!"^con passione" d4 e2 d4 e2 | !>!=f6- f4 =A2 | %38
w: lang ihm|noch * ein|an- der Herz in|Lie- * be|
 (B2 =c2) e2!>(! e4 =d2 | =c2!>)! z2 z2 z4 z!p! c | =c4- c=B c4- c=d | e4- e=d =c2 z2"^cresc." e2 | %42
w: warm * ent- ge- gen|schlägt. Und|wer * dir sei- * ne|Brust * er- schließt, o|
 e4- ed e4- ef | g4 g2!>(! g6- | g2!>)! z2 z2!p! g6 | g4!<(! g2 =a4 g2!<)! |!>(! (g6 c4)!>)! c2 | %47
w: tu * ihm, was * du|kannst, zu lieb!|* O|tu ihm, was du|kannst, * und|
!<(! (c2 d2) e2!<)! g4 f2 |!>(! (f2 e2) c2!>)! B4 B2 |!<(! g6 g6!<)! | g6- g4 g2 | %51
w: mach * ihm je- de|Stun- * de froh, und|mach ihm|kei- * ne,|
!f! _a4 a2 =g4 =f2 | (_d6 =c2) z2 z2 | z12 | z4 z2 z4 =c2 |!f! !>!=a6 !>!=g2 !>!=f2 !>!=A2 | %56
w: kei- ne Stun- de|trüb, *||o|mach ihm je- de|
 !>!=d4 !>!_d2 (4:3:4=c2 =G2 _B3 A ||[K:C] F2 z2 z2 z4 z2 | z12 | %59
w: Stun- de froh, und kei- ne|trüb.||
 z2 !fermata!z"^Recit." AA_B cc_e>_d !fermata!c2 | z12 | z12 | %62
w: Und hü- te dei- ne Zun- ge wohl!|||
 z2 z"^Adagio""^Recit." cc_d _ee_g>_f !fermata!e2 | z12 | z12 | z2 z2 B2!f! ^g6- | g4 e2 B4 ^G2 | %67
w: Bald ist ein bö- ses Wort ge- sagt.|||O Gott,|* es war nicht|
 E6- E4 E2 | _E2 z2 z2 z4 z2 | z2 z2!p! _B2!>(! _d4 _c2!>)! |[K:Ab] _c4 B2 z4 z2 | %71
w: bös * ge-|meint;|der An- dre|a- ber,|
 z2 z2 B2 !>!_f6- | f2"^lento" e2 (d2 _c2 B2) A2 | G6 z4 z2 | z12 | z12 | z4 z2 z2 z2!p! E2 | %77
w: der An-|* dre geht * * und|klagt.|||O|
"^a tempo"!<(! c6 c6!<)! | c6- c2 z2 c2 | c4 c2!>(! d4 c2 | (c6 F2)!>)! z2 F2 | %81
w: lieb, o|lieb, * so|lang du lie- ben|kannst, * so|
 (F2 G2) A2!>(! c4 B2!>)! | A4 z2 z2 z2 E2 |!<(! c6 c6!<)! | c6- c2 z2 c2 | c4!<(! c2 d4 c2!<)! | %86
w: lang * du lie- ben|kannst, o|lieb, o|lieb, * so|lang du lie- ben|
!>(! (f6 f4)!>)! z2 | z4 z2!p! B6 | e6- e4 z2 | z4 z2 A6 |!<(! d6- d4!<)! c2 | %91
w: kannst, *|o|lieb, *|o|lieb, * so|
"^poco f"!>(! c4 B2!p!"^poco rit." c4 B2!>)! | A6 z4 z2 | z12 | z12 | z12 | z12 | z12 | z12 | z12 | %100
w: lang du lie- ben|kannst.||||||||
 z12 | z12 |] %102
w: ||
V:2
 z2 (CEcA) z2 (CEcA) | z2 (CEcA) z2 (CEcA) | z2 (CEcA) z2 (CEcA) | z2 (C=EcB) z2 (CEcB) | %4
 z2 (EFc=A) z2 (EFcA) | z2 (A,=DcF) z2 (A,B,FD) | z2 (G,DGE) z2 (G,DBE) | z2 (A,CAE) z2 (A,CAE) | %8
 z2 (CEcA) z2 (CEcA) | z2 (C=EcB) z2 (CEcB) |!<(! z2 (CEc=A) z2 (EFcA)!<)! | %11
 z2 (=DAfc)!p! z2 (A,B,FD) | z2 (G,DGE) z2 (G,DBE) | z2 (A,CAE)!p! z2 (A,CAE) | %14
 z2 (A,DA_F) z2 (A,DBF) | z2 (CEcA) z2 (CEcA) | z2 (CFcA) z2 (CF=dA) | z2 (=EG=ec) z2 (EGec) | %18
"^agitato" z2 (=E=A=ec) z2 (EAec) | z2 (=E^G=e=B) z2 (=B,EBG) | %20
"^dimin." z2 (^C=E^c^G) z2 (_A,DA_F) | z2 z2 B2"^>" d4 _c2 | x12 | %23
 x4 B2"^>" d4"^con passione" _c2 | z2"^<" =A2 B2 _f6 | .A !fermata!z z2 z2 z4 z2 | x12 | %27
[M:9/4] Gd_fegd'_f'e'ee'ee'ee'ee'ee' |[K:B][M:6/4] [dd']6 [dd']6 | [dd']6- [dd']4 [dd']2 | %30
 [dd']4 [dd']2{d'f'} [ee']4 [dd']2 | ([dd']6 [Gg]2) z2 [Gg]2 | %32
!<(! [Gg]2 [Aa]2 [Bb]2!<)! [dd']4 [cc']2 |!>(! [cc']2 [Bb]2 g2!>)! f4 [Ff]2 | [dd']6 [dd']6 | %35
 [dd']6- [dd']4 [^d^d']2 |!f! [dd']4"^passionato" [ee']2 [dd']4 [ee']2 | %37
"^>" [=f=f']6- [ff']4 [=A=a]2 | [Bb]2 [=c=c']2 [ee']2- [ee']4 [=d=d']2 | %39
!p! [=c=c']2 z E,=G,[=CE] z2 z E=G[ce] | z2 z _A,=C[=F_A] z2 z A=c[=f_a] | %41
 z2 z E,=G,[=CE] z2 z E=G[=ce] | z2 z =CE[=A=c] z2 z ce[=a=c'] | %43
!f!"^c" [GBeg]2 z2 z2 z4 z"^espressivo assai" [gg'] | [gg']6 [gg']4 [gg']2 | %45
 [gg']4 [gg']2"^<" [=a=a']4 [gg']2 |"^>" ([gg']6 [cc']4) [cc']2 | %47
!<(! ([cc']2 [dd']2 [ee']2!<)! [gg']4) [ff']2 |"^>" ([ff']2 [ee']2 [cc']2 [Bb]4) z2 | %49
 z2 z G,B,[EG] z2 z G,^B,[FG] | z2 z G,=B,[^EG] z2 z G,B,[EG] | z (_A,=C=F_AFCA,CFAF) | %52
 z (=G,_B,_D=FD) z2 z2!f! [=c=c']2 |"^>" [_a_a']4 [aa']2 [=g=g']4 [=f=f']2 | %54
 [_d_d']6- [dd']4 [=c=c']2 | z2!f! [=C=F=A]2 [CF=c]2"^colla parte" z4 z2 | %56
 z2 [=G,_B,E]2 [G,B,E]2 z4 !fermata!z2 ||[K:C] z2 z2 A2 c4 _B2 | A4 A2 c4 _B2 | %59
 A2 !fermata!z z z2 z2 z2 z2 |"^a tempo" z2 z2 c2 _e4 _d2 | c4 c2 _e4 _d2 | %62
 c2 !fermata!z z z2 z2 z2 z2 | z2"^a tempo" z2 ^d2 ^f4 e2 | ^d4 d2 ^f4 e2 | A^FAFAF z2 z ^G[B^g]e | %66
 z3 E[^Ge]B z2 z B,[EB]G | z3 ^C[E^c]^G z2 z ^G,[CG]E | x4 _B2 _d4 _c2 | z3 _B,_E_B z2 z _A,_D_A | %70
[K:Ab] z z z z B2"^>" _d4 _c2 | z B,"^<"=AEBG z2 z2 D_F | A z z2 z8 | z4 z2 z2 z D_FE | %74
 Gd_fegd'_f'e'd'gfe | dGE_FE=F E^FEGEA |"^poco rit."!>(!E=AEBE=B!>)! z2 z4 | %77
 x4"^l.H." [eac']2 [eac']2 x4 | z4"^l.H." [=ebc']2 [ebc']2 z4 | z4"^l.H." [e=ac']2 [ead']2 z4 | %80
 z4"^l.H." [=dfc']2 [df]2 z4 | z4"^l.H." [Bdg]2 [Bdg]2 z4 | z4"^l.H." [cea]2 [cea]2 z4 | %83
 z4"^l.H." [eac']2 [eac']2 z4 | z4"^l.H." [=ebc']2 [ebc']2 z4 | z12 | %86
 z4"^l.H." [_ac'f']2 [a=bf']2 z4 | z4"^l.H." [_fab]2 [fgb]2 z4 | z4 [_gbe']2 [g=ae']2 z4 | %89
 z4"^l.H." [=d_ga]2 [dfa]2 z4 | z4"^l.H." [fad']2 [_fad']2 z4 | z12 | z4 z CEAceab | %93
 [ec']4 [=ec']2 [fc']2 [_gd']2 [gc']2 | [af']2 z2 z8 | [db]4 [=db]2 [eb]2 [_fc']2 [fb]2 | %96
 [_ge']2 z2 z2 f2 _f4- | b2 c'2 d'2 !>!g'f'c'bgf | cBGFCB, A,6 | D4 G,2 x2 x4 | x2 C=EcG z2 x4 | %101
 z4 z2 z2 e4 |] %102
V:3
 x2 C4 z2 C4 | x2 C4 z2 C4 | x2 C4 z2 C4 | x2 C4 z2 C4 | x12 | x12 | x12 | x12 | x2 C4 z2 C4 | %9
 x2 C4 z2 C4 | x12 | x12 | x12 | x2 A,4 z2 A,4 | x2 A,4 z2 A,4 | x2 C4 z2 C4 | x2 C4 z2 C4 | %17
 x2 =E4 z2 E4 | x2 =E4 z2 E4 | x2 =E4 z2 =B,4 | x2 ^C4 z2 _A,4 | x3 B,BE z2 z D_cA | x4 x8 | x12 | %24
 x B,=AEBG x6 | x12 | x12 |[M:9/4] x18 |[K:B][M:6/4] x12 | x12 | x12 | x12 | x12 | x12 | x12 | %35
 x12 | x12 | x12 | x12 | x12 | x12 | x12 | x12 | x12 | x12 | x12 | x12 | x12 | x12 | x12 | x12 | %51
 x12 | x12 | x12 | x12 | x12 | x12 ||[K:C] x2 _ECEC ECECEC | _ECECEC ECECEC | _E2 z2 z8 | %60
 x2 _G_EGE GEGEGE | _G_EGEGE GEGEGE | _G2 z2 z8 | x2 A^FAF AFAFAF | A^FAFAF AFAFAF | ^d4 x8 | x12 | %67
 x12 | x3 _B,_B_E x2 x _D_c_A | x12 |[K:Ab] x3 B,BE z2 z D_cA | x12 | x12 | x12 | x12 | x12 | x12 | %77
 x CEcAE CEAcAE | x C=EcBE CEBcBE | x C_Ec=AE z EFcAF | x A,=DcFD A,B,DFDB, | x B,DGED z G,DBED | %82
 x A,CAEC A,CEFEA | x =DEcAE CEAcAE | x C=EcBE CEBcBE | x CFc=AF z C_GcAG | x CFc_AF =B,FA=BAF | %87
 x _B,_FBAF z B,FBGF | x B,EB_GE =A,EG=AGE | x A,=DA_GD z A,DAFD | x A,_DAFD A,D_FAFD | %91
 x G,DGED z G,DBED | x12 | x12 | x12 | x12 | x6 d'4 c'2 | f2 =e2 [_e=f]2 [=d_a]2 x4 | x6 z2 [DF]4 | %99
 _F2 E2 D2 z2 CEcA | x12 | z2 z2 c2- c6 |] %102
V:4
"^P e legato" (A,,E,-) E,4 (A,,,E,-) E,4 |"^simile" (A,,E,-) E,4 (A,,,E,-) E,4 | %2
 (A,,E,-) E,4 (A,,,E,-) E,4 | (G,,=E,-) E,4 (G,,E,-) E,4 | (F,,=A,-) A,4 (F,A,-) A,4 | %5
 (B,,F,-) F,4 (B,,,=D,-) D,4 | (E,,B,,-) B,,4 (E,,E,-) E,4 | (A,,E,-) E,4 (A,,,E,-) E,4 | %8
 (A,,E,-) E,4 (A,,E,-) E,4 | (G,,=E,-) E,4 (_G,,E,-) E,4 | (F,,_G,-) G,4 (F,,F,-) F,4 | %11
 (B,,F,-) F,4 (B,,,=D,-) D,4 | (E,,B,,-) B,,4 (E,,E,-) E,4 | (A,,E,-) E,4 (A,,,C,-) C,4 | %14
 (_F,,D,-) D,4 (D,,_F,-) F,4 | (A,,E,-) E,4 (A,,,E,-) E,4 | (A,,F,-) F,4 (F,,A,-) A,4 | %17
 (C,,G,-) G,4 (=E,C-) C4 | (=A,,,=E,-) E,4 (C,=A,-) A,4 | (=E,,=B,,-) B,,4 (^G,=E,-) E,4 | %20
 (=E,,^C,-) C,4 (_F,_D,-) D,4 | E,,B,,G, z z2 _F,,D,A, z z2 | %22
 E,,B,,G,[I:staff -1]B,EB[I:staff +1] _F,,D,_F,[I:staff -1]A,DA | %23
[I:staff +1] E,,B,,G,[I:staff -1]B,BE[I:staff +1] _F,,D,A,[I:staff -1]D_cA | %24
[I:staff +1] E,,B,,E,G,B, z D,,D,A,B,[I:staff -1]D_F |[I:staff +1] !fermata!z12 | %26
 z4 z2 E,,B,,G,[I:staff -1]D_FE |[M:9/4][I:staff +1] z18 | %28
[K:B][M:6/4] z!<(! F,B,DB,F,!<)! z DB,F,B,D | z ^^F,CDCF, z DCF,CD | z ^F,CDCF, z E^B,F,B,D | %31
 z ^E,=B,DB,E, z DB,E,B,D | z =E,A,DA,E, z DA,E,A,C | z (B,,F,B,DGFDCB,G,F,) | %34
 z!<(! F,B,DB,F,!<)! z DC^^F,CD | z ^F,^B,DB,F, z _E=CF,CE | z =G,=CECG,E,G,CECG, | %37
 z =A,=C=FCA,=D,A,CF z2 | z =G,B,=FB,G,=F,G,B,F z2 | =C,,=G,,=C, z z z E,=G,=C z z z | %40
 =F,,=C,=F, z z z _A,=C=F z z z | =C,,=G,,=C, z z z E,=G,=C z z z | =A,,E,=A, z z z =CE=A z z z | %43
 z2 (G,B,EB,G,E,G,B,EB,) | z2 (G,^B,FB,G,D,G,B,FB,) | z2 (G,=B,FB,) z2 (G,B,^EB,) | %46
 z2 (=E,A,CG CA,E,A,CG) | z2[K:treble] (=A,DFB FDA,DFB) |[K:bass] z2 (G,B,EG EB,G,B,EG) | %49
 E,,B,,E, z z z D,,^B,,D, z z z | =D,,=B,,=D, z z z C,,B,,^E, z z z | [=C,,=C,]2 z2 z2 z4 z2 | %52
 [=C,,=C,]2 z2 z2 (_B,=G,B,=CEC) | z2 (_A,=C=F_AFCA,CFA) | z2 (=G,_B,_D=FDB,G,B,=CE) | %55
 z2 [=C,=F,=A,]2 [C,F,A,]2 z4 z2 | z2 =C,2 =C,,2 z4 !fermata!z2 || %57
[K:C] z2 z2 F,,A, _G,,_B,C,B,_G,B, | F,A,C,A,F,,A, _G,,_B,C,B,_G,B, | %59
 A,2 !fermata!z z z2 z2 z2 z2 | z2 z2 _A,,C =A,,_D_E,DA,D | _A,C_E,C_A,,C =A,,_DE,D=A,D | %62
 C2 !fermata!z z z2 z2 z2 z2 | z2 z2 B,,^D C,E^F,ECE | B,^D^F,DB,,D C,EF,ECE | %65
 B,^D^F,DB,,D (B,,^G,E z2 z) | (^G,,E,B, z2 z) (E,,B,,^G, z2 z) | (E,,^C,^G, z2 z) (E,,C,E, z2 z) | %68
 (_E,,_B,,G, z2 z) (_F,,_D,_A, z2 z) | (_E,,_B,,G, z z z) (_F,,_D,_F, z z z) | %70
[K:Ab] (E,,B,,G, z z z) (_F,,D,A, z z z) | (E,,B,,E,G,B,) z _D,,D,A,B, z z | z12 | %73
 z4 z2 E,,B,,G, z z2 | z12 | z12 | z12 | [A,,A,]4 z8 | [G,,G,]4 z8 | [F,,F,]4 z8 | [B,,,B,,]4 z8 | %81
 [E,,E,]4 z8 | [A,,,A,,]4 z8 | [A,,E,C]4 z8 | [G,,=E,B,]4 z8 | [F,,=A,]4 z2 [E,,_G,]4 z2 | %86
 [=D,,F,]8 z4 | [_D,,_F,]8 z4 | [C,,E,]8 z4 | [=B,,,=D,]8 z4 | [_B,,,_D,]8 z4 | E,,6 E,6 | %92
 z A,,,A,,E,A, z6 z |[K:treble] ([Ac]4 [GB]2 [F=A]2 [EA]2 [EA]2 | [=D_c]2) z2 z2 z4 z2 | %95
 ([_GB]4 [_FA]2 [E=G]2 [DG]2 [DG]2 | [C=A]2) z2 z2 B4 _A2 | G4 =A2 !>!B6 |[K:bass] z8 x4 | G,4 x8 | %100
 x12 | x12 |] %102
V:5
 A,,4 z8 | A,,4 z8 | A,,4 z8 | G,,4 z2 G,,4 z2 | F,,4 z2 F,4 z2 | B,,4 z2 B,,,4 z2 | %6
 E,,4 z2 E,,4 z2 | A,,4 z8 | A,,4 z2 A,,4 z2 | G,,4 z2 _G,,4 z2 | F,,4 z2 F,,4 z2 | %11
 B,,4 z2 B,,,4 z2 | E,,4 z2 E,,4 z2 | A,,4 z2 A,,,4 z2 | _F,,4 z2 D,,4 z2 | A,,4 z2 A,,,4 z2 | %16
 A,,4 z2 F,,4 z2 | C,,4 z2 =E,4 z2 | =A,,,4 z2 C,4 z2 | =E,,4 z2 ^G,4 z2 | =E,,4 z2 _F,4 z2 | x12 | %22
 x12 | x12 | x12 | x12 | x12 |[M:9/4] x18 |[K:B][M:6/4] B,,4 x8 | A,,4 z8 | =A,,4 z2 G,,4 z2 | %31
 C,,4 z8 | F,,4 z8 | x12 | B,,4 z2 A,,4 z2 | =A,,4 z2 _A,,4 z2 | =G,,4 z8 | =G,,4 z8 | =G,,4 z8 | %39
 x12 | x12 | x12 | x12 | [E,,E,]2 z2 z8 | [D,,D,]2 z2 z8 | [=D,,=D,]2 z2 z2 [C,,C,]2 z4 | %46
 F,,2 z2 z8 | B,,2[K:treble] x10 |[K:bass] [E,,E,]2 z2 z8 | x12 | x12 | x12 | x12 | %53
 [=C,,=C,]2 x10 | x12 | x12 | x12 ||[K:C] x4 F,,2 _G,,2 C,2 _G,2 | F,2 C,2 F,,2 _G,,2 C,2 _G,2 | %59
 F,,2 z2 z8 | x4 _A,,2 =A,,2 _E,2 =A,2 | _A,2 _E,2 _A,,2 =A,,2 E,2 =A,2 | _A,,2 z2 z8 | %63
 x4 B,,2 C,2 ^F,2 C2 | B,2 ^F,2 B,,2 C,2 F,2 C2 | B,2 ^F,2 B,,2 x6 | x12 | x12 | x12 | x12 | %70
[K:Ab] x12 | x12 | x12 | x12 | x12 | x12 | x12 | x12 | x12 | x12 | x12 | x12 | x12 | x12 | x12 | %85
 x12 | x12 | x12 | x12 | x12 | x12 | x12 | x12 |[K:treble] x12 | x12 | x12 | x6 D6- | %97
 D2 C2 F2 B,6 |[K:bass] z8 E,4- | E,2 E,4 A,,E,- E,4 | A,,=E,- E,4 z2 _E,4- | E,12 |] %102
V:6
 x12 | x12 | x12 | x12 | x12 | x12 | x12 | x12 | x12 | x12 | x12 | x12 | x12 | x12 | x12 | x12 | %16
 x12 | x12 | x12 | x12 | x12 | x12 | x12 | x12 | x12 | x12 | x12 |[M:9/4] x18 |[K:B][M:6/4] x12 | %29
 x12 | x12 | x12 | x12 | x12 | x12 | x12 | x12 | x12 | x12 | x12 | x12 | x12 | x12 | x12 | x12 | %45
 x12 | x12 | x12 | x12 | x12 | x12 | x12 | x12 | x12 | x12 | x12 | x12 ||[K:C] x12 | x12 | x12 | %60
 x12 | x12 | x12 | x12 | x12 | x12 | x12 | x12 | x12 | x12 |[K:Ab] x12 | x12 | x12 | x12 | x12 | %75
 x12 | x12 | x12 | x12 | x12 | x12 | x12 | x12 | x12 | x12 | x12 | x12 | x12 | x12 | x12 | x12 | %91
 x12 | x12 | x12 | x12 | x12 | x12 | x12 | x6 z2 z2 d2- | d2 c2 B2 A4 x2 | x12 | z2 E4- [EA]6 |] %102
V:7
 x12 | x12 | x12 | x12 | x12 | x12 | x12 | x12 | x12 | x12 | x12 | x12 | x12 | x12 | x12 | x12 | %16
 x12 | x12 | x12 | x12 | x12 | x12 | x12 | x12 | x12 | x12 | x12 |[M:9/4] x18 |[K:B][M:6/4] x12 | %29
 x12 | x12 | x12 | x12 | x12 | x12 | x12 | x12 | x12 | x12 | x12 | x12 | x12 | x12 | x12 | x12 | %45
 x12 | x12 | x2[K:treble] x10 |[K:bass] x12 | x12 | x12 | x12 | x12 | x12 | x12 | x12 | x12 || %57
[K:C] x12 | x12 | x12 | x12 | x12 | x12 | x12 | x12 | x12 | x12 | x12 | x12 | x12 |[K:Ab] x12 | %71
 x12 | x12 | x12 | x12 | x12 | x12 | x12 | x12 | x12 | x12 | x12 | x12 | x12 | x12 | x12 | x12 | %87
 x12 | x12 | x12 | x12 | x12 | x12 |[K:treble] x12 | x12 | x12 | x12 | x12 |[K:bass] x8 z2 E,,2 | %99
 z2 z2 E,,2 x6 | x6 A,,6- | A,,12 |] %102
V:8
 x12 | x12 | x12 | x12 | x12 | x12 | x12 | x12 | x12 | x12 | x12 | x12 | x12 | x12 | x12 | x12 | %16
 x12 | x12 | x12 | x12 | x12 | x12 | x12 | x12 | x12 | x12 | x12 |[M:9/4] x18 |[K:B][M:6/4] x12 | %29
 x12 | x12 | x12 | x12 | x12 | x12 | x12 | x12 | x12 | x12 | x12 | x12 | x12 | x12 | x12 | x12 | %45
 x12 | x12 | x12 | x12 | x12 | x12 | x12 | x12 | x12 | x12 | x12 | x12 ||[K:C] x12 | x12 | x12 | %60
 x12 | x12 | x12 | x12 | x12 | x12 | x12 | x12 | x12 | x12 |[K:Ab] x12 | x12 | x12 | x12 | x12 | %75
 x12 | x12 | x12 | x12 | x12 | x12 | x12 | x12 | x12 | x12 | x12 | x12 | x12 | x12 | x12 | x12 | %91
 x12 | x12 | x12 | x12 | x12 | x12 | x12 | x12 | x12 | x8 z2 C2- | C6- C6 |] %102

